X:144370
H:
T:Lass of Fyvie
C:Harmony by AM Cairns
B:
O:Kevin Fraser
Z:Kevin Fraser
Q:1/4=90
K:HP
M:4/4
L:1/8
R:March
U: R = ///
U: r = //
U: V = !accent!
V:M gstem=up stem=down name="Melody"
V:H gstem=up stem=down name="Harmony"
V:C gstem=up stem=down name="C-Harmony"
V:S gstem=up stem=down dyn=up stafflines=1 clef=perc middle=G name="Snare" sname="Snare"" sname="Snare"
V:B gstem=up stem=down clef=none dyn=up name="Bass"
V:T gstem=up stem=down clef=none dyn=up name="Tenor"
I:MIDI=program 110
I:linebreak $
% %score {M H}
%%MIDI program 109 #bagpipes
%%MIDI vol 100
%%landscape
[V:M][|:{g}A2 | {Gdc}d>c {Gdc}de {Gdc}d2 {g}A2 | {Gdc}d>c {Gdc}de {Gdc}d2 {g}A2 | {gef}e2 {g}fg {ag}a2 gf | {gef}e2 {g}A2 {GAG}A2 ag | $
[V:M]      x2 | {afg}fe {g}fg {ag}a3A | {Gdc}de {Gdc}dB {g}G3{d}B | {g}A2 {g}cd {gef}ed {gcd}cB | {g}A2 {Gdc}d>e {Gdc}d2 :|]
[V:H][|:{g}A2 | {Gdc}d>c {Gdc}de {Gdc}d2 {g}A2 | {Gdc}d>c {Gdc}de {Gdc}d2 {g}A2 | {gcd}c2 {g}de {gfg}f2 {g}ed | {gcd}c2 {G}c2 {gcd}c2 {g}fe | $
[V:H]      x2 | {gde}dc {g}de {gfg}f3 {e}f | {g}fg {a}fd {gBd}B3d | {g}c2 {g}AB {gcd}cd {gef}ed | {g}f2 {e}f>g {a}f2 :|]

